lib/logo_tmp/nrk-logo-nrk-p3-urort.svg

<svg width="120" height="16" viewBox="0 0 120 16" fill="none" xmlns="http://www.w3.org/2000/svg">
<path d="M82.7199 9.46308C82.7283 10.0512 82.6587 10.6379 82.5129 11.2078C82.3966 11.6711 82.1776 12.1023 81.8722 12.4695C81.5661 12.816 81.1756 13.0775 80.7386 13.2285C80.1959 13.4114 79.6255 13.4981 79.053 13.4848C78.3859 13.4999 77.7225 13.3827 77.101 13.1398C76.5549 12.9153 76.1073 12.5027 75.8393 11.9767C75.5191 11.2828 75.3703 10.5222 75.4056 9.7588V1.00598H73.3356V10.0952C73.3133 10.9129 73.4646 11.726 73.7795 12.481C74.0482 13.1037 74.4683 13.6492 75.0017 14.068C75.5386 14.4777 76.1519 14.776 76.8056 14.9453C77.5132 15.1322 78.2423 15.2249 78.9742 15.221C80.0736 15.2639 81.1658 15.0264 82.1482 14.531C82.9508 14.0972 83.5959 13.4211 83.9915 12.599C84.4104 11.6845 84.6159 10.6868 84.5924 9.68125V1.00697H82.7196L82.7199 9.46308Z" fill="white"/>
<path d="M91.6504 4.87984C91.2816 4.97845 90.9295 5.13126 90.6056 5.33327C90.2692 5.54307 89.9583 5.79115 89.679 6.07255C89.6324 6.11888 89.587 6.17112 89.541 6.21975V4.75137L87.5302 5.04708V15.0028H89.541V7.55507C89.6904 7.45057 89.8451 7.35373 90.0043 7.26494C90.2016 7.15648 90.4057 7.06099 90.6155 6.97908C90.8189 6.90022 91.0259 6.83122 91.2365 6.77208C91.4528 6.71185 91.6737 6.669 91.8969 6.64394C92.1358 6.61772 92.3765 6.61113 92.6164 6.62422L92.853 4.77141C92.4489 4.7422 92.0428 4.77882 91.6504 4.87984Z" fill="white"/>
<path d="M103.144 4.49508L102.04 5.66019C101.895 5.55207 101.743 5.45267 101.586 5.36251C100.762 4.92378 99.8385 4.70651 98.9053 4.73198C97.967 4.71067 97.0394 4.93482 96.2143 5.38222C95.4527 5.8085 94.8299 6.44498 94.4203 7.21565C93.975 8.0803 93.7547 9.04316 93.7796 10.0154C93.7543 10.9809 93.9641 11.9381 94.3907 12.8046C94.5038 13.0192 94.6338 13.2245 94.7794 13.4184L93.681 14.5891L94.5879 15.4168L95.6393 14.2806C95.7909 14.3939 95.9498 14.4969 96.1151 14.5891C96.9197 15.0114 97.8187 15.2217 98.7272 15.1999C99.6717 15.2198 100.605 14.9957 101.438 14.5494C102.216 14.1196 102.855 13.4768 103.281 12.6965C103.745 11.8236 103.976 10.8457 103.952 9.85736C103.974 8.9161 103.761 7.98416 103.331 7.14665C103.214 6.93212 103.08 6.72721 102.93 6.53387L104.07 5.32308L103.144 4.49508ZM96.2636 7.90598C96.4846 7.41228 96.8531 6.99909 97.3183 6.72312C97.8091 6.45075 98.3639 6.31462 98.925 6.32884C99.3712 6.31863 99.8146 6.4026 100.226 6.57526C100.448 6.67491 100.652 6.80886 100.832 6.97218L96.2458 11.9257C95.9903 11.2808 95.8688 10.5905 95.889 9.89712C95.8656 9.21391 95.9935 8.53399 96.2636 7.90598ZM101.468 11.9668C101.243 12.4766 100.868 12.9061 100.394 13.1989C99.918 13.4744 99.376 13.6142 98.8264 13.6034C98.2816 13.6161 97.7446 13.4724 97.2789 13.1894C97.1477 13.105 97.025 13.008 96.9125 12.8999L101.501 7.94541C101.57 8.10247 101.628 8.26381 101.675 8.42841C101.805 8.90689 101.868 9.40104 101.862 9.8968C101.886 10.6079 101.751 11.3153 101.468 11.9681V11.9668Z" fill="white"/>
<path d="M110.596 4.87984C110.227 4.97851 109.875 5.13132 109.551 5.33327C109.214 5.54315 108.903 5.79123 108.624 6.07255C108.577 6.11888 108.532 6.17112 108.486 6.21975V4.75137L106.475 5.04708V15.0028H108.486V7.55507C108.636 7.45057 108.79 7.35373 108.949 7.26494C109.147 7.15648 109.351 7.06099 109.561 6.97908C109.764 6.90022 109.971 6.83122 110.182 6.77208C110.398 6.71191 110.619 6.66906 110.842 6.64394C111.081 6.61772 111.322 6.61113 111.562 6.62422L111.798 4.77141C111.394 4.74222 110.988 4.77883 110.596 4.87984Z" fill="white"/>
<path d="M119.152 13.357C119.06 13.3764 118.958 13.3964 118.846 13.4158L118.511 13.4749C118.403 13.4941 118.295 13.5073 118.186 13.5144C118.08 13.5213 117.982 13.5242 117.89 13.5242C117.588 13.5327 117.288 13.472 117.013 13.3468C116.776 13.2347 116.58 13.0522 116.451 12.8244C116.313 12.5673 116.245 12.2785 116.254 11.9868V6.52565H119.033L119.25 4.94851H116.254V1.83333L114.243 2.54304V4.94851H112.725L112.508 6.52565H114.243V12.4005C114.234 12.7924 114.294 13.1827 114.42 13.5538C114.522 13.8474 114.679 14.1185 114.884 14.3522C115.071 14.5605 115.299 14.7282 115.554 14.8451C115.815 14.9648 116.089 15.0509 116.372 15.1014C116.651 15.1529 116.935 15.1793 117.22 15.1802C117.43 15.1802 117.637 15.1736 117.841 15.1608C118.045 15.148 118.232 15.128 118.403 15.1014C118.574 15.0747 118.734 15.0452 118.885 15.013C119.037 14.9808 119.165 14.9505 119.27 14.9239L119.388 13.288C119.312 13.3172 119.232 13.3403 119.152 13.357Z" fill="white"/>
<path d="M54.0554 1.00586H49.7373C49.7373 1.00586 52.191 5.03384 52.2187 5.08454C52.3111 5.20102 52.3628 5.34466 52.3657 5.49336C52.3686 5.64205 52.3226 5.78758 52.2348 5.90759L49.7373 10.0014H54.056C54.056 10.0014 56.1387 6.596 56.4234 6.12324C56.5585 5.94213 56.6306 5.72171 56.6285 5.49577C56.6264 5.26982 56.5504 5.05078 56.4119 4.87219C56.1048 4.34906 56.1041 4.34941 54.0554 1.00586Z" fill="white"/>
<path d="M49.1793 1.00591H45.3334V14.998H49.1793V1.00591Z" fill="white"/>
<path d="M67.581 3.32389C67.4358 3.07632 66.1505 1.00586 66.1505 1.00586H56.9074L58.9265 4.39253H63.795L61.7867 7.68472L64.0254 11.446L61.8648 14.997H65.8108C66.4452 13.9593 67.3937 12.354 67.5919 12.0251C67.7278 11.8434 67.8002 11.622 67.7982 11.395C67.7961 11.1681 67.7196 10.9481 67.5803 10.7688C67.3828 10.4317 66.326 8.75567 65.6946 7.7239C65.6946 7.7239 67.3937 4.90841 67.5919 4.57952C67.7277 4.39788 67.8002 4.17669 67.7982 3.94988C67.7963 3.72307 67.72 3.50316 67.581 3.32389Z" fill="white"/>
<path d="M58.6901 8.13937C58.0817 9.13296 57.0644 10.7981 56.8738 11.1228C56.7397 11.2954 56.6659 11.5073 56.6639 11.726C56.6619 11.9446 56.7317 12.1578 56.8626 12.333C57.0536 12.6497 58.0788 14.328 58.6901 15.3289C59.3011 14.329 60.3267 12.6507 60.5173 12.333C60.6482 12.1578 60.718 11.9446 60.716 11.726C60.7141 11.5074 60.6404 11.2955 60.5064 11.1228C60.3158 10.7981 59.2982 9.13296 58.6901 8.13937Z" fill="white"/>
<path d="M6.10352e-05 15.0001V1.00135H4.59345V15.0001H6.10352e-05ZM10.8428 3.22932L13.4845 15.0001H8.45743L5.30313 1.00135H8.1226C8.76913 0.992962 9.39647 1.22087 9.88698 1.6422C10.3783 2.04586 10.7158 2.60623 10.8428 3.22932ZM14.1745 15.0001V1.00135H18.7679V15.0001H14.1745ZM22.2373 6.32486C21.7423 6.32969 21.2553 6.20018 20.828 5.95021C20.4065 5.70655 20.0563 5.35637 19.8127 4.93478C19.5625 4.50747 19.4329 4.0203 19.4379 3.52512C19.4322 3.03295 19.5618 2.54869 19.8127 2.12525C20.0589 1.70824 20.4087 1.36186 20.828 1.11969C21.2554 0.870001 21.7423 0.740515 22.2373 0.745029C22.7293 0.73973 23.2134 0.869332 23.637 1.11969C24.0521 1.36398 24.3982 1.71007 24.6424 2.12525C24.893 2.54881 25.0226 3.03299 25.0173 3.52512C25.0219 4.02026 24.8924 4.50735 24.6424 4.93478C24.4007 5.35452 24.0543 5.70441 23.637 5.95021C23.2133 6.20105 22.7289 6.33069 22.2366 6.32486H22.2373ZM25.727 15.0001V1.00135H30.3208V15.0001H25.727ZM36.1361 8.65135C36.149 8.66494 36.2475 8.82594 36.4318 9.1344C36.616 9.44285 36.8558 9.83721 37.1513 10.3174C37.447 10.7974 37.7591 11.3067 38.0874 11.8454C38.4158 12.3841 38.7248 12.8935 39.0144 13.3735C39.3028 13.8535 39.6314 14.3957 40.0001 15.0001H34.9532C34.6376 14.4875 34.3516 14.0241 34.0953 13.6101C33.839 13.196 33.5666 12.7491 33.2779 12.2693C32.9885 11.79 32.7024 11.3234 32.4196 10.8695C32.1368 10.4155 31.8938 10.018 31.6905 9.67665C31.4864 9.33512 31.345 9.10506 31.2663 8.98654C31.0714 8.69243 30.956 8.35276 30.9315 8.00072C30.9511 7.66284 31.0598 7.33622 31.2466 7.05404C31.3255 6.9226 31.4701 6.68925 31.6803 6.35407C31.8906 6.01889 32.1371 5.62131 32.4196 5.16126C32.7022 4.70121 32.9883 4.23129 33.2779 3.75152C33.5675 3.27175 33.8399 2.82152 34.0953 2.4009C34.352 1.98072 34.638 1.5141 34.9532 1.00103H40.0001L36.0963 7.36949C35.9755 7.55857 35.9074 7.77648 35.8991 8.00072C35.9121 8.23612 35.9943 8.46245 36.1354 8.65135H36.1361Z" fill="white"/>
</svg>

<svg xmlns="http://www.w3.org/2000/svg" viewBox="0 0 120 16"><path fill="#fff" d="M82.72 9.463a6.656 6.656 0 0 1-.207 1.745 3.186 3.186 0 0 1-.64 1.261 2.68 2.68 0 0 1-1.134.76 4.92 4.92 0 0 1-1.686.256 5.048 5.048 0 0 1-1.952-.345 2.47 2.47 0 0 1-1.262-1.163 4.768 4.768 0 0 1-.433-2.218V1.006h-2.07v9.09c-.023.817.129 1.63.444 2.385a4.065 4.065 0 0 0 1.222 1.587c.537.41 1.15.708 1.804.877.707.187 1.436.28 2.168.276a6.487 6.487 0 0 0 3.174-.69 4.33 4.33 0 0 0 1.844-1.932 6.634 6.634 0 0 0 .6-2.918V1.007H82.72v8.456ZM91.65 4.88c-.368.098-.72.251-1.044.453-.337.21-.648.458-.927.74-.047.046-.092.098-.138.147V4.75l-2.01.296v9.956h2.01V7.555a5.177 5.177 0 0 1 1.075-.576 6.81 6.81 0 0 1 .62-.207 4.216 4.216 0 0 1 1.38-.148l.237-1.853c-.404-.029-.81.008-1.203.109ZM103.144 4.495 102.04 5.66a4.553 4.553 0 0 0-.454-.297 5.39 5.39 0 0 0-2.68-.631 5.389 5.389 0 0 0-2.692.65 4.546 4.546 0 0 0-1.794 1.834 5.791 5.791 0 0 0-.64 2.8 5.961 5.961 0 0 0 .61 2.789c.114.214.244.42.39.613L93.68 14.59l.907.828 1.051-1.136c.152.113.31.216.476.308a5.345 5.345 0 0 0 2.612.61 5.494 5.494 0 0 0 2.711-.65 4.676 4.676 0 0 0 1.843-1.852c.464-.873.695-1.851.671-2.84a5.646 5.646 0 0 0-.621-2.71 4.566 4.566 0 0 0-.401-.613l1.14-1.21-.926-.829Zm-6.88 3.411a2.62 2.62 0 0 1 1.054-1.183 3.147 3.147 0 0 1 1.607-.394c.446-.01.89.074 1.301.246.222.1.426.234.606.397l-4.586 4.954a5.104 5.104 0 0 1-.357-2.029 4.638 4.638 0 0 1 .375-1.991Zm5.204 4.06c-.225.51-.6.94-1.074 1.233a3.01 3.01 0 0 1-1.568.404 2.852 2.852 0 0 1-1.547-.414 2.413 2.413 0 0 1-.367-.29l4.589-4.954c.069.157.127.319.174.483.13.479.193.973.187 1.469a4.8 4.8 0 0 1-.394 2.071v-.001ZM110.596 4.88a3.86 3.86 0 0 0-1.045.453 5.11 5.11 0 0 0-.927.74c-.047.046-.092.098-.138.147V4.75l-2.011.296v9.956h2.011V7.555c.15-.104.304-.201.463-.29.198-.109.402-.204.612-.286a6.73 6.73 0 0 1 .621-.207 4.222 4.222 0 0 1 1.38-.148l.236-1.853c-.404-.029-.81.008-1.202.109ZM119.152 13.357c-.092.02-.194.04-.306.059l-.335.059c-.108.02-.216.032-.325.04a4.54 4.54 0 0 1-.296.01 1.982 1.982 0 0 1-.877-.178 1.27 1.27 0 0 1-.562-.523 1.663 1.663 0 0 1-.197-.837V6.526h2.779l.217-1.577h-2.996V1.833l-2.011.71v2.406h-1.518l-.217 1.577h1.735V12.4c-.009.392.051.783.177 1.154.102.293.259.564.464.798.187.208.415.376.67.493.261.12.535.206.818.256.279.052.563.078.848.08.21 0 .417-.007.621-.02.204-.013.391-.033.562-.06a8.871 8.871 0 0 0 .867-.177l.118-1.636c-.076.03-.156.052-.236.069ZM54.055 1.006h-4.318s2.454 4.028 2.482 4.079a.68.68 0 0 1 .016.823L49.737 10h4.319s2.083-3.405 2.367-3.878a1.033 1.033 0 0 0-.011-1.25c-.307-.524-.308-.524-2.357-3.867ZM49.18 1.006h-3.847v13.992h3.846V1.006ZM67.581 3.324c-.145-.248-1.43-2.318-1.43-2.318h-9.244l2.02 3.387h4.868l-2.008 3.292 2.238 3.761-2.16 3.551h3.946c.634-1.038 1.583-2.643 1.78-2.972a1.037 1.037 0 0 0-.01-1.256c-.198-.337-1.255-2.013-1.886-3.045l1.897-3.144a1.036 1.036 0 0 0-.011-1.256Z"/><path fill="#fff" d="M58.69 8.14a436.99 436.99 0 0 0-1.816 2.983.998.998 0 0 0-.011 1.21c.19.317 1.216 1.995 1.827 2.996.611-1 1.637-2.678 1.827-2.996a.999.999 0 0 0-.01-1.21c-.191-.325-1.209-1.99-1.817-2.984ZM0 15V1.001h4.593v14H0ZM10.843 3.23 13.485 15H8.457L5.303 1.001h2.82a2.655 2.655 0 0 1 1.764.641c.491.404.829.964.956 1.587ZM14.175 15V1.001h4.593v14h-4.594Zm8.062-8.675a2.779 2.779 0 0 1-2.425-1.39 2.735 2.735 0 0 1-.374-1.41 2.685 2.685 0 0 1 .375-1.4 2.813 2.813 0 0 1 3.824-1.005c.415.244.761.59 1.005 1.005.251.424.38.908.375 1.4.005.495-.125.982-.375 1.41a2.8 2.8 0 0 1-1.005 1.015c-.424.251-.908.38-1.4.375ZM25.727 15V1.001h4.594v14h-4.594Zm10.41-6.349c.012.014.11.175.295.483.184.309.424.703.72 1.183a373.133 373.133 0 0 1 1.862 3.056c.289.48.617 1.023.986 1.627h-5.047c-.315-.512-.601-.976-.858-1.39-.256-.414-.528-.86-.817-1.34-.29-.48-.576-.947-.858-1.4a71.337 71.337 0 0 1-.73-1.193 20.751 20.751 0 0 0-.424-.69A2.041 2.041 0 0 1 30.932 8c.02-.338.128-.665.315-.947.079-.131.223-.365.433-.7a212.331 212.331 0 0 0 1.598-2.603l.817-1.35.858-1.4H40l-3.904 6.368c-.12.19-.189.407-.197.632.013.235.095.461.236.65h.001Z"/></svg>
